Obsidian-SemiLight/actions/24s/network-connect.svg

<svg xmlns="http://www.w3.org/2000/svg" viewBox="0 0 24 24">
  <defs id="defs3051">
    <style type="text/css" id="current-color-scheme">
      .ColorScheme-Text {
        color:#4d4d4d;
      }
      </style>
  </defs>
 <path style="fill:currentColor;fill-opacity:1;stroke:none" 
     d="M 19.292969 4 L 15.792969 7.5 L 14.292969 6 L 12.292969 8 L 9 11.292969 L 7 13.292969 L 8.5 14.792969 L 4 19.292969 L 4.7070312 20 L 9.2070312 15.5 L 10.707031 17 L 12.707031 15 L 16 11.707031 L 18 9.7070312 L 16.5 8.2070312 L 20 4.7070312 L 19.292969 4 z "
     class="ColorScheme-Text"
     />
</svg>

<svg viewBox="0 0 24 24" xmlns="http://www.w3.org/2000/svg"><path d="m19.292969 4-3.5 3.5-1.5-1.5-2 2-3.292969 3.292969-2 2 1.5 1.5-4.5 4.5.7070312.707031 4.5-4.5 1.4999998 1.5 2-2 3.292969-3.292969 2-1.9999998-1.5-1.5 3.5-3.5z" fill="#4d4d4d"/></svg>
